X:66
T:Bonjour, comment \,ca va?
C:Calvin Volrath
Z:robin.beech@mcgill.ca
M:4/4
L:1/8
K:G
BcBA | G2B2 D2B2 | GABc dBGB | ABcA F2A2 | DFAB cedc | 
BcBA | G2B2 D2B2 | GABc d3B | ABcd e2dc |1 BGAF G4 :|2 BGAF G3c |:
BGBd | g2fg efdf | c3B AFAc | fdec dBcA | B4 BABc |
d2de dBGB | A3A ABcd |1 e3c BGBc | d3c :|2 e2dc BGAF | G4 |]

